packages/core/admin/admin/src/assets/images/icon_offline-cloud.svg

<svg width="88" height="88" viewBox="0 0 88 88" fill="none" xmlns="http://www.w3.org/2000/svg">
<rect x="0.5" y="0.5" width="87" height="87" rx="43.5" fill="#F0F0FF"/>
<path d="M34.0469 39.2969H30C27.4479 39.2969 25.2604 40.2448 23.4375 42.1406C21.6146 43.9635 20.7031 46.151 20.7031 48.7031C20.7031 51.2552 21.6146 53.4427 23.4375 55.2656C25.2604 57.0885 27.4479 58 30 58H52.75L34.0469 39.2969ZM23 28.25L25.9531 25.2969L65 64.3438L62.0469 67.2969L57.3438 62.7031H30C26.1354 62.7031 22.8177 61.3542 20.0469 58.6562C17.349 55.8854 16 52.5677 16 48.7031C16 44.9115 17.3125 41.6667 19.9375 38.9688C22.5625 36.2708 25.7344 34.849 29.4531 34.7031L23 28.25ZM61.1719 39.4062C64.1615 39.625 66.7135 40.8646 68.8281 43.125C70.9427 45.3125 72 47.9375 72 51C72 55.0104 70.3594 58.1823 67.0781 60.5156L63.6875 57.125C66.0938 55.8125 67.2969 53.7708 67.2969 51C67.2969 49.1042 66.6042 47.4635 65.2188 46.0781C63.8333 44.6927 62.1927 44 60.2969 44H56.7969V42.7969C56.7969 39.224 55.5573 36.1979 53.0781 33.7188C50.599 31.2396 47.5729 30 44 30C41.9583 30 39.9896 30.474 38.0938 31.4219L34.5938 28.0312C37.4375 26.2083 40.5729 25.2969 44 25.2969C47.9375 25.2969 51.5833 26.6823 54.9375 29.4531C58.3646 32.224 60.4427 35.5417 61.1719 39.4062Z" fill="#4945FF"/>
<rect x="0.5" y="0.5" width="87" height="87" rx="43.5" stroke="#D9D8FF"/>
</svg>

<svg width="88" height="88" viewBox="0 0 88 88" fill="none" xmlns="http://www.w3.org/2000/svg">
    <rect x=".5" y=".5" width="87" height="87" rx="43.5" fill="#F0F0FF"/>
    <path d="M34 39.3h-4c-2.6 0-4.7 1-6.6 2.8a9 9 0 0 0-2.7 6.6 9 9 0 0 0 2.7 6.6A9 9 0 0 0 30 58h22.8L34 39.3Zm-11-11 3-3 39 39-3 3-4.7-4.6H30a13.8 13.8 0 0 1-14-14c0-3.8 1.3-7 4-9.7 2.6-2.7 5.7-4.2 9.5-4.3L23 28.2Zm38.2 11.1c3 .2 5.5 1.5 7.6 3.7A11 11 0 0 1 72 51c0 4-1.6 7.2-5 9.5l-3.3-3.4a6.5 6.5 0 0 0 3.6-6.1c0-1.9-.7-3.5-2-5-1.5-1.3-3.1-2-5-2h-3.5v-1.2c0-3.6-1.2-6.6-3.7-9a13 13 0 0 0-15-2.3L34.6 28a17 17 0 0 1 20.3 1.5c3.5 2.7 5.5 6 6.3 10Z" fill="#4945FF"/>
    <rect x=".5" y=".5" width="87" height="87" rx="43.5" stroke="#D9D8FF"/>
</svg>
